bernoullicharts/1_5_x__bound.svg

<?xml version="1.0" encoding="utf-8" standalone="no"?>
<!DOCTYPE svg PUBLIC "-//W3C//DTD SVG 1.1//EN"
  "http://www.w3.org/Graphics/SVG/1.1/DTD/svg11.dtd">
<!-- Created with matplotlib (https://matplotlib.org/) -->
<svg height="345.6pt" version="1.1" viewBox="0 0 460.8 345.6" width="460.8pt" xmlns="http://www.w3.org/2000/svg" xmlns:xlink="http://www.w3.org/1999/xlink">
 <defs>
  <style type="text/css">
*{stroke-linecap:butt;stroke-linejoin:round;}
  </style>
 </defs>
 <g id="figure_1">
  <g id="patch_1">
   <path d="M 0 345.6 
L 460.8 345.6 
L 460.8 0 
L 0 0 
z
" style="fill:#ffffff;"/>
  </g>
  <g id="axes_1">
   <g id="patch_2">
    <path d="M 57.6 307.584 
L 414.72 307.584 
L 414.72 41.472 
L 57.6 41.472 
z
" style="fill:#ffffff;"/>
   </g>
   <g id="matplotlib.axis_1">
    <g id="xtick_1">
     <g id="line2d_1">
      <defs>
       <path d="M 0 0 
L 0 3.5 
" id="md229c32c1f" style="stroke:#000000;stroke-width:0.8;"/>
      </defs>
      <g>
       <use style="stroke:#000000;stroke-width:0.8;" x="73.800255" xlink:href="#md229c32c1f" y="307.584"/>
      </g>
     </g>
     <g id="text_1">
      <text style="font-family:DejaVu Sans;font-size:10px;font-style:normal;font-weight:normal;text-anchor:middle;" transform="rotate(-0, 73.800255, 322.182437)" x="73.800255" y="322.182437">0.0</text>
     </g>
    </g>
    <g id="xtick_2">
     <g id="line2d_2">
      <g>
       <use style="stroke:#000000;stroke-width:0.8;" x="138.744153" xlink:href="#md229c32c1f" y="307.584"/>
      </g>
     </g>
     <g id="text_2">
      <text style="font-family:DejaVu Sans;font-size:10px;font-style:normal;font-weight:normal;text-anchor:middle;" transform="rotate(-0, 138.744153, 322.182437)" x="138.744153" y="322.182437">0.2</text>
     </g>
    </g>
    <g id="xtick_3">
     <g id="line2d_3">
      <g>
       <use style="stroke:#000000;stroke-width:0.8;" x="203.688051" xlink:href="#md229c32c1f" y="307.584"/>
      </g>
     </g>
     <g id="text_3">
      <text style="font-family:DejaVu Sans;font-size:10px;font-style:normal;font-weight:normal;text-anchor:middle;" transform="rotate(-0, 203.688051, 322.182437)" x="203.688051" y="322.182437">0.4</text>
     </g>
    </g>
    <g id="xtick_4">
     <g id="line2d_4">
      <g>
       <use style="stroke:#000000;stroke-width:0.8;" x="268.631949" xlink:href="#md229c32c1f" y="307.584"/>
      </g>
     </g>
     <g id="text_4">
      <text style="font-family:DejaVu Sans;font-size:10px;font-style:normal;font-weight:normal;text-anchor:middle;" transform="rotate(-0, 268.631949, 322.182437)" x="268.631949" y="322.182437">0.6</text>
     </g>
    </g>
    <g id="xtick_5">
     <g id="line2d_5">
      <g>
       <use style="stroke:#000000;stroke-width:0.8;" x="333.575847" xlink:href="#md229c32c1f" y="307.584"/>
      </g>
     </g>
     <g id="text_5">
      <text style="font-family:DejaVu Sans;font-size:10px;font-style:normal;font-weight:normal;text-anchor:middle;" transform="rotate(-0, 333.575847, 322.182437)" x="333.575847" y="322.182437">0.8</text>
     </g>
    </g>
    <g id="xtick_6">
     <g id="line2d_6">
      <g>
       <use style="stroke:#000000;stroke-width:0.8;" x="398.519745" xlink:href="#md229c32c1f" y="307.584"/>
      </g>
     </g>
     <g id="text_6">
      <text style="font-family:DejaVu Sans;font-size:10px;font-style:normal;font-weight:normal;text-anchor:middle;" transform="rotate(-0, 398.519745, 322.182437)" x="398.519745" y="322.182437">1.0</text>
     </g>
    </g>
    <g id="text_7">
     <text style="font-family:DejaVu Sans;font-size:10px;font-style:normal;font-weight:normal;text-anchor:middle;" transform="rotate(-0, 236.16, 335.860562)" x="236.16" y="335.860562">Input Coin's Heads Probability (λ)</text>
    </g>
   </g>
   <g id="matplotlib.axis_2">
    <g id="ytick_1">
     <g id="line2d_7">
      <defs>
       <path d="M 0 0 
L -3.5 0 
" id="m88fe2dcf9d" style="stroke:#000000;stroke-width:0.8;"/>
      </defs>
      <g>
       <use style="stroke:#000000;stroke-width:0.8;" x="57.6" xlink:href="#m88fe2dcf9d" y="295.488574"/>
      </g>
     </g>
     <g id="text_8">
      <text style="font-family:DejaVu Sans;font-size:10px;font-style:normal;font-weight:normal;text-anchor:end;" transform="rotate(-0, 50.6, 299.287793)" x="50.6" y="299.287793">0.00</text>
     </g>
    </g>
    <g id="ytick_2">
     <g id="line2d_8">
      <g>
       <use style="stroke:#000000;stroke-width:0.8;" x="57.6" xlink:href="#m88fe2dcf9d" y="243.796144"/>
      </g>
     </g>
     <g id="text_9">
      <text style="font-family:DejaVu Sans;font-size:10px;font-style:normal;font-weight:normal;text-anchor:end;" transform="rotate(-0, 50.6, 247.595363)" x="50.6" y="247.595363">0.05</text>
     </g>
    </g>
    <g id="ytick_3">
     <g id="line2d_9">
      <g>
       <use style="stroke:#000000;stroke-width:0.8;" x="57.6" xlink:href="#m88fe2dcf9d" y="192.103714"/>
      </g>
     </g>
     <g id="text_10">
      <text style="font-family:DejaVu Sans;font-size:10px;font-style:normal;font-weight:normal;text-anchor:end;" transform="rotate(-0, 50.6, 195.902932)" x="50.6" y="195.902932">0.10</text>
     </g>
    </g>
    <g id="ytick_4">
     <g id="line2d_10">
      <g>
       <use style="stroke:#000000;stroke-width:0.8;" x="57.6" xlink:href="#m88fe2dcf9d" y="140.411283"/>
      </g>
     </g>
     <g id="text_11">
      <text style="font-family:DejaVu Sans;font-size:10px;font-style:normal;font-weight:normal;text-anchor:end;" transform="rotate(-0, 50.6, 144.210502)" x="50.6" y="144.210502">0.15</text>
     </g>
    </g>
    <g id="ytick_5">
     <g id="line2d_11">
      <g>
       <use style="stroke:#000000;stroke-width:0.8;" x="57.6" xlink:href="#m88fe2dcf9d" y="88.718853"/>
      </g>
     </g>
     <g id="text_12">
      <text style="font-family:DejaVu Sans;font-size:10px;font-style:normal;font-weight:normal;text-anchor:end;" transform="rotate(-0, 50.6, 92.518071)" x="50.6" y="92.518071">0.20</text>
     </g>
    </g>
    <g id="text_13">
     <text style="font-family:DejaVu Sans;font-size:10px;font-style:normal;font-weight:normal;text-anchor:middle;" transform="rotate(-90, 22.254687, 174.528)" x="22.254687" y="174.528">Coin Flips Needed</text>
    </g>
   </g>
   <g id="line2d_12">
    <path clip-path="url(#p4cc63a611d)" d="M 73.832727 295.487541 
L 77.112066 295.384896 
L 80.391405 295.285672 
L 83.670744 295.18981 
L 86.950083 295.097252 
L 90.229421 295.007943 
L 93.50876 294.921828 
L 96.788099 294.838851 
L 100.067438 294.758959 
L 103.346777 294.682101 
L 106.626116 294.608224 
L 109.905455 294.537276 
L 113.184793 294.46921 
L 116.464132 294.403974 
L 119.743471 294.34152 
L 123.02281 294.281802 
L 126.302149 294.224771 
L 129.581488 294.170382 
L 132.860826 294.11859 
L 136.140165 294.06935 
L 139.419504 294.022618 
L 142.698843 293.978351 
L 145.978182 293.936506 
L 149.257521 293.897042 
L 152.53686 293.859918 
L 155.816198 293.825092 
L 159.095537 293.792526 
L 162.374876 293.762179 
L 165.654215 293.734015 
L 168.933554 293.707994 
L 172.212893 293.684079 
L 175.492231 293.662234 
L 178.77157 293.642423 
L 182.050909 293.624609 
L 185.330248 293.608759 
L 188.609587 293.594837 
L 191.888926 293.58281 
L 195.168264 293.572644 
L 198.447603 293.564308 
L 201.726942 293.557767 
L 205.006281 293.552992 
L 208.28562 293.549949 
L 211.564959 293.54861 
L 214.844298 293.548943 
L 218.123636 293.550919 
L 221.402975 293.554508 
L 224.682314 293.559681 
L 227.961653 293.566411 
L 231.240992 293.57467 
L 234.520331 293.584429 
L 237.799669 293.595661 
L 241.079008 293.608341 
L 244.358347 293.622442 
L 247.637686 293.637938 
L 250.917025 293.654804 
L 254.196364 293.673015 
L 257.475702 293.692545 
L 260.755041 293.713372 
L 264.03438 293.735471 
L 267.313719 293.758819 
L 270.593058 293.783393 
L 273.872397 293.809169 
L 277.151736 293.836126 
L 280.431074 293.864242 
L 283.710413 293.893495 
L 286.989752 293.923864 
L 290.269091 293.955327 
L 293.54843 293.987864 
L 296.827769 294.021455 
L 300.107107 294.05608 
L 303.386446 294.091719 
L 306.665785 294.128352 
L 309.945124 294.165961 
L 313.224463 294.204527 
L 316.503802 294.244032 
L 319.78314 294.284456 
L 323.062479 294.325782 
L 326.341818 294.367993 
L 329.621157 294.411071 
L 332.900496 294.455 
L 336.179835 294.499761 
L 339.459174 294.54534 
L 342.738512 294.591718 
L 346.017851 294.638882 
L 349.29719 294.686813 
L 352.576529 294.735498 
L 355.855868 294.78492 
L 359.135207 294.835066 
L 362.414545 294.885919 
L 365.693884 294.937465 
L 368.973223 294.98969 
L 372.252562 295.04258 
L 375.531901 295.09612 
L 378.81124 295.150298 
L 382.090579 295.205099 
L 385.369917 295.26051 
L 388.649256 295.316519 
L 391.928595 295.373112 
L 395.207934 295.430276 
L 398.487273 295.488 
" style="fill:none;stroke:#1f77b4;stroke-linecap:square;stroke-width:1.5;"/>
   </g>
   <g id="line2d_13">
    <path clip-path="url(#p4cc63a611d)" d="M 73.832727 103.192733 
L 77.112066 99.057339 
L 80.391405 134.208191 
L 83.670744 53.568 
L 86.950083 99.057339 
L 90.229421 105.26043 
L 93.50876 134.208191 
L 96.788099 92.854247 
L 100.067438 128.0051 
L 103.346777 94.921944 
L 106.626116 96.989642 
L 109.905455 84.583458 
L 113.184793 101.125036 
L 116.464132 78.380367 
L 119.743471 84.583458 
L 123.02281 96.989642 
L 126.302149 78.380367 
L 129.581488 76.312669 
L 132.860826 68.041881 
L 136.140165 117.666614 
L 139.419504 86.651155 
L 142.698843 86.651155 
L 145.978182 117.666614 
L 149.257521 111.463522 
L 152.53686 119.734311 
L 155.816198 90.78655 
L 159.095537 84.583458 
L 162.374876 80.448064 
L 165.654215 107.328128 
L 168.933554 105.26043 
L 172.212893 99.057339 
L 175.492231 105.26043 
L 178.77157 117.666614 
L 182.050909 109.395825 
L 185.330248 113.531219 
L 188.609587 76.312669 
L 191.888926 76.312669 
L 195.168264 109.395825 
L 198.447603 92.854247 
L 201.726942 111.463522 
L 205.006281 138.343586 
L 208.28562 88.718853 
L 211.564959 105.26043 
L 214.844298 123.869705 
L 218.123636 103.192733 
L 221.402975 74.244972 
L 224.682314 63.906486 
L 227.961653 117.666614 
L 231.240992 101.125036 
L 234.520331 125.937403 
L 237.799669 107.328128 
L 241.079008 92.854247 
L 244.358347 130.072797 
L 247.637686 90.78655 
L 250.917025 86.651155 
L 254.196364 138.343586 
L 257.475702 123.869705 
L 260.755041 96.989642 
L 264.03438 140.411283 
L 267.313719 123.869705 
L 270.593058 132.140494 
L 273.872397 96.989642 
L 277.151736 96.989642 
L 280.431074 90.78655 
L 283.710413 107.328128 
L 286.989752 117.666614 
L 290.269091 134.208191 
L 293.54843 86.651155 
L 296.827769 136.275889 
L 300.107107 76.312669 
L 303.386446 121.802008 
L 306.665785 138.343586 
L 309.945124 107.328128 
L 313.224463 142.47898 
L 316.503802 115.598916 
L 319.78314 103.192733 
L 323.062479 136.275889 
L 326.341818 128.0051 
L 329.621157 138.343586 
L 332.900496 96.989642 
L 336.179835 113.531219 
L 339.459174 123.869705 
L 342.738512 115.598916 
L 346.017851 103.192733 
L 349.29719 140.411283 
L 352.576529 117.666614 
L 355.855868 115.598916 
L 359.135207 134.208191 
L 362.414545 103.192733 
L 365.693884 113.531219 
L 368.973223 136.275889 
L 372.252562 130.072797 
L 375.531901 138.343586 
L 378.81124 119.734311 
L 382.090579 134.208191 
L 385.369917 144.546678 
L 388.649256 150.749769 
L 391.928595 99.057339 
L 395.207934 123.869705 
L 398.487273 125.937403 
" style="fill:none;stroke:#ff7f0e;stroke-linecap:square;stroke-width:1.5;"/>
   </g>
   <g id="patch_3">
    <path d="M 57.6 307.584 
L 57.6 41.472 
" style="fill:none;stroke:#000000;stroke-linecap:square;stroke-linejoin:miter;stroke-width:0.8;"/>
   </g>
   <g id="patch_4">
    <path d="M 414.72 307.584 
L 414.72 41.472 
" style="fill:none;stroke:#000000;stroke-linecap:square;stroke-linejoin:miter;stroke-width:0.8;"/>
   </g>
   <g id="patch_5">
    <path d="M 57.6 307.584 
L 414.72 307.584 
" style="fill:none;stroke:#000000;stroke-linecap:square;stroke-linejoin:miter;stroke-width:0.8;"/>
   </g>
   <g id="patch_6">
    <path d="M 57.6 41.472 
L 414.72 41.472 
" style="fill:none;stroke:#000000;stroke-linecap:square;stroke-linejoin:miter;stroke-width:0.8;"/>
   </g>
   <g id="text_14">
    <text style="font-family:DejaVu Sans;font-size:12px;font-style:normal;font-weight:normal;text-anchor:middle;" transform="rotate(-0, 236.16, 35.472)" x="236.16" y="35.472">Coin Flips for 1/(5+x)</text>
   </g>
   <g id="legend_1">
    <g id="patch_7">
     <path d="M 242.359062 190.706125 
L 407.72 190.706125 
Q 409.72 190.706125 409.72 188.706125 
L 409.72 160.349875 
Q 409.72 158.349875 407.72 158.349875 
L 242.359062 158.349875 
Q 240.359062 158.349875 240.359062 160.349875 
L 240.359062 188.706125 
Q 240.359062 190.706125 242.359062 190.706125 
z
" style="fill:#ffffff;opacity:0.8;stroke:#cccccc;stroke-linejoin:miter;"/>
    </g>
    <g id="line2d_14">
     <path d="M 244.359062 166.448312 
L 264.359062 166.448312 
" style="fill:none;stroke:#1f77b4;stroke-linecap:square;stroke-width:1.5;"/>
    </g>
    <g id="line2d_15"/>
    <g id="text_15">
     <text style="font-family:DejaVu Sans;font-size:10px;font-style:normal;font-weight:normal;text-anchor:start;" transform="rotate(-0, 272.359062, 169.948312)" x="272.359062" y="169.948312">Coin Flip Lower Bound</text>
    </g>
    <g id="line2d_16">
     <path d="M 244.359062 181.126437 
L 264.359062 181.126437 
" style="fill:none;stroke:#ff7f0e;stroke-linecap:square;stroke-width:1.5;"/>
    </g>
    <g id="line2d_17"/>
    <g id="text_16">
     <text style="font-family:DejaVu Sans;font-size:10px;font-style:normal;font-weight:normal;text-anchor:start;" transform="rotate(-0, 272.359062, 184.626437)" x="272.359062" y="184.626437">Avg. Coins Flipped 1/(5+x)</text>
    </g>
   </g>
  </g>
 </g>
 <defs>
  <clipPath id="p4cc63a611d">
   <rect height="266.112" width="357.12" x="57.6" y="41.472"/>
  </clipPath>
 </defs>
</svg>

<svg height="460.8" viewBox="0 0 460.8 345.6" width="614.4" xmlns="http://www.w3.org/2000/svg" xmlns:xlink="http://www.w3.org/1999/xlink"><defs><style>*{stroke-linecap:butt;stroke-linejoin:round}</style></defs><g id="figure_1"><path d="M0 345.6h460.8V0H0z" fill="#fff" id="patch_1"/><g id="axes_1"><path d="M57.6 307.584h357.12V41.472H57.6z" fill="#fff" id="patch_2"/><g id="matplotlib.axis_1"><g id="xtick_1"><g id="line2d_1"><defs><path d="M0 0v3.5" id="md229c32c1f" stroke="#000" stroke-width=".8"/></defs><use x="73.8" xlink:href="#md229c32c1f" y="307.584" stroke="#000" stroke-width=".8"/></g><text x="73.8" y="322.182" font-family="DejaVu Sans" font-size="10" font-weight="400" text-anchor="middle" id="text_1">0.0</text></g><g id="xtick_2"><use x="138.744" xlink:href="#md229c32c1f" y="307.584" stroke="#000" stroke-width=".8" id="line2d_2"/><text x="138.744" y="322.182" font-family="DejaVu Sans" font-size="10" font-weight="400" text-anchor="middle" id="text_2">0.2</text></g><g id="xtick_3"><use x="203.688" xlink:href="#md229c32c1f" y="307.584" stroke="#000" stroke-width=".8" id="line2d_3"/><text x="203.688" y="322.182" font-family="DejaVu Sans" font-size="10" font-weight="400" text-anchor="middle" id="text_3">0.4</text></g><g id="xtick_4"><use x="268.632" xlink:href="#md229c32c1f" y="307.584" stroke="#000" stroke-width=".8" id="line2d_4"/><text x="268.632" y="322.182" font-family="DejaVu Sans" font-size="10" font-weight="400" text-anchor="middle" id="text_4">0.6</text></g><g id="xtick_5"><use x="333.576" xlink:href="#md229c32c1f" y="307.584" stroke="#000" stroke-width=".8" id="line2d_5"/><text x="333.576" y="322.182" font-family="DejaVu Sans" font-size="10" font-weight="400" text-anchor="middle" id="text_5">0.8</text></g><g id="xtick_6"><use x="398.52" xlink:href="#md229c32c1f" y="307.584" stroke="#000" stroke-width=".8" id="line2d_6"/><text x="398.52" y="322.182" font-family="DejaVu Sans" font-size="10" font-weight="400" text-anchor="middle" id="text_6">1.0</text></g><text x="236.16" y="335.861" font-family="DejaVu Sans" font-size="10" font-weight="400" text-anchor="middle" id="text_7">Input Coin&apos;s Heads Probability (λ)</text></g><g id="matplotlib.axis_2"><g id="ytick_1"><g id="line2d_7"><defs><path d="M0 0h-3.5" id="m88fe2dcf9d" stroke="#000" stroke-width=".8"/></defs><use x="57.6" xlink:href="#m88fe2dcf9d" y="295.489" stroke="#000" stroke-width=".8"/></g><text x="50.6" y="299.288" font-family="DejaVu Sans" font-size="10" font-weight="400" text-anchor="end" id="text_8">0.00</text></g><g id="ytick_2"><use x="57.6" xlink:href="#m88fe2dcf9d" y="243.796" stroke="#000" stroke-width=".8" id="line2d_8"/><text x="50.6" y="247.595" font-family="DejaVu Sans" font-size="10" font-weight="400" text-anchor="end" id="text_9">0.05</text></g><g id="ytick_3"><use x="57.6" xlink:href="#m88fe2dcf9d" y="192.104" stroke="#000" stroke-width=".8" id="line2d_9"/><text x="50.6" y="195.903" font-family="DejaVu Sans" font-size="10" font-weight="400" text-anchor="end" id="text_10">0.10</text></g><g id="ytick_4"><use x="57.6" xlink:href="#m88fe2dcf9d" y="140.411" stroke="#000" stroke-width=".8" id="line2d_10"/><text x="50.6" y="144.211" font-family="DejaVu Sans" font-size="10" font-weight="400" text-anchor="end" id="text_11">0.15</text></g><g id="ytick_5"><use x="57.6" xlink:href="#m88fe2dcf9d" y="88.719" stroke="#000" stroke-width=".8" id="line2d_11"/><text x="50.6" y="92.518" font-family="DejaVu Sans" font-size="10" font-weight="400" text-anchor="end" id="text_12">0.20</text></g><text transform="rotate(-90 22.255 174.528)" x="22.255" y="174.528" font-family="DejaVu Sans" font-size="10" font-weight="400" text-anchor="middle" id="text_13">Coin Flips Needed</text></g><path clip-path="url(#p4cc63a611d)" d="M73.833 295.488l3.28-.103 3.278-.1 3.28-.095 3.28-.093 3.278-.09 3.28-.085 3.28-.083 3.278-.08 3.28-.077 3.28-.074 3.278-.07 3.28-.069 3.28-.065 3.278-.062 3.28-.06 3.28-.057 3.278-.055 3.28-.051 3.28-.05 3.279-.046 3.279-.045 3.28-.041 3.279-.04 3.279-.037 3.28-.035 3.279-.032 3.279-.03 3.28-.029 3.279-.026 3.279-.024 3.28-.022 3.279-.02 3.279-.017 3.28-.016 3.279-.014 3.279-.012 3.28-.01 3.279-.009 3.279-.006 3.28-.005 3.279-.003 3.279-.001h3.28l3.279.002 3.279.004 3.28.005 3.279.006 3.279.009 3.28.01 3.279.01 3.279.013 3.28.014 3.279.016 3.279.017 3.28.018 3.279.02 3.279.02 3.28.022 3.279.024 3.28.024 3.278.026 3.28.027 3.28.028 3.278.03 3.28.03 3.28.031 3.278.033 3.28.033 3.28.035 3.278.036 3.28.036 3.28.038 3.278.039 3.28.039 3.28.04 3.278.042 3.28.042 3.28.043 3.278.044 3.28.045 3.28.045 3.279.047 3.279.047 3.28.048 3.279.048 3.279.05 3.28.05 3.279.05 3.279.052 3.28.053 3.279.053 3.279.053 3.28.054 3.279.055 3.279.056 3.28.056 3.279.056 3.279.057 3.28.058" fill="none" stroke="#1f77b4" stroke-linecap="square" stroke-width="1.5" id="line2d_12"/><path clip-path="url(#p4cc63a611d)" d="M73.833 103.193l3.28-4.136 3.278 35.151 3.28-80.64 3.28 45.49 3.278 6.202 3.28 28.948 3.28-41.354 3.278 35.151 3.28-33.083 3.28 2.068 3.278-12.407 3.28 16.542 3.28-22.745 3.278 6.203 3.28 12.407 3.28-18.61 3.278-2.067 3.28-8.271 3.28 49.625 3.279-31.016h3.279l3.28 31.016 3.279-6.203 3.279 8.27 3.28-28.947 3.279-6.204 3.279-4.135 3.28 26.88 3.279-2.068 3.279-6.203 3.28 6.203 3.279 12.407 3.279-8.271 3.28 4.135 3.279-37.218h3.279l3.28 33.083 3.279-16.542 3.279 18.61 3.28 26.88 3.279-49.625 3.279 16.541 3.28 18.61 3.279-20.677 3.279-28.948 3.28-10.339 3.279 53.76 3.279-16.541 3.28 24.812 3.279-18.609 3.279-14.474 3.28 37.219 3.279-39.286 3.279-4.136 3.28 51.693 3.279-14.474 3.279-26.88 3.28 43.421 3.279-16.541 3.28 8.27 3.278-35.15h3.28l3.28-6.203 3.278 16.541 3.28 10.339 3.28 16.541 3.278-47.557 3.28 49.625 3.28-59.963 3.278 45.489 3.28 16.542 3.28-31.016 3.278 35.151 3.28-26.88 3.28-12.406 3.278 33.083 3.28-8.27 3.28 10.338L332.9 96.99l3.28 16.541 3.28 10.339 3.279-8.271 3.279-12.406 3.28 37.218 3.279-22.744 3.279-2.068 3.28 18.61 3.279-31.016 3.279 10.338 3.28 22.745 3.279-6.203 3.279 8.27 3.28-18.609 3.279 14.474 3.279 10.339 3.28 6.203 3.279-51.693 3.279 24.813 3.28 2.067" fill="none" stroke="#ff7f0e" stroke-linecap="square" stroke-width="1.5" id="line2d_13"/><path d="M57.6 307.584V41.472" fill="none" stroke="#000" stroke-linecap="square" stroke-width=".8" id="patch_3"/><path d="M414.72 307.584V41.472" fill="none" stroke="#000" stroke-linecap="square" stroke-width=".8" id="patch_4"/><path d="M57.6 307.584h357.12" fill="none" stroke="#000" stroke-linecap="square" stroke-width=".8" id="patch_5"/><path d="M57.6 41.472h357.12" fill="none" stroke="#000" stroke-linecap="square" stroke-width=".8" id="patch_6"/><text x="236.16" y="35.472" font-family="DejaVu Sans" font-size="12" font-weight="400" text-anchor="middle" id="text_14">Coin Flips for 1/(5+x)</text><g id="legend_1"><path d="M242.36 190.706h165.36q2 0 2-2V160.35q0-2-2-2H242.36q-2 0-2 2v28.356q0 2 2 2z" fill="#fff" opacity=".8" stroke="#ccc" id="patch_7"/><path d="M244.36 166.448h20" fill="none" stroke="#1f77b4" stroke-linecap="square" stroke-width="1.5" id="line2d_14"/><text x="272.359" y="169.948" font-family="DejaVu Sans" font-size="10" font-weight="400" id="text_15">Coin Flip Lower Bound</text><path d="M244.36 181.126h20" fill="none" stroke="#ff7f0e" stroke-linecap="square" stroke-width="1.5" id="line2d_16"/><text x="272.359" y="184.626" font-family="DejaVu Sans" font-size="10" font-weight="400" id="text_16">Avg. Coins Flipped 1/(5+x)</text></g></g></g><defs><clipPath id="p4cc63a611d"><path d="M57.6 41.472h357.12v266.112H57.6z"/></clipPath></defs></svg>
